X: 30
M:2/4
L:1/16
K:G
uD2"^Segno"|DGGF GABG|EAA^G ABcA|FDFA d3 c|BcAB GDB,C|
vFG|AAFA dd"4"ed|BBGB eefe|^ccAc egfe|d^cBA GEFG|


